icons/lines/save-two.svg

<svg xmlns="http://www.w3.org/2000/svg" width="24" height="24" viewBox="0 0 24 24" fill="none" stroke="currentColor" stroke-width="2" stroke-linecap="round" stroke-linejoin="round" >
  <path d="M12.89 5.88H5.10999C3.39999 5.88 2 7.27999 2 8.98999V20.35C2 21.8 3.04 22.42 4.31 21.71L8.23999 19.52C8.65999 19.29 9.34 19.29 9.75 19.52L13.68 21.71C14.95 22.42 15.99 21.8 15.99 20.35V8.98999C16 7.27999 14.6 5.88 12.89 5.88Z"/>
  <path d="M16 8.98999V20.35C16 21.8 14.96 22.41 13.69 21.71L9.76001 19.52C9.34001 19.29 8.65999 19.29 8.23999 19.52L4.31 21.71C3.04 22.41 2 21.8 2 20.35V8.98999C2 7.27999 3.39999 5.88 5.10999 5.88H12.89C14.6 5.88 16 7.27999 16 8.98999Z"/>
  <path d="M22 5.10999V16.47C22 17.92 20.96 18.53 19.69 17.83L16 15.77V8.98999C16 7.27999 14.6 5.88 12.89 5.88H8V5.10999C8 3.39999 9.39999 2 11.11 2H18.89C20.6 2 22 3.39999 22 5.10999Z"/>
  </svg>

<svg xmlns="http://www.w3.org/2000/svg" width="24" height="24" viewBox="0 0 24 24" fill="none" stroke="currentColor" stroke-width="2" stroke-linecap="round" stroke-linejoin="round">
  <path d="M16 8.99v11.36c0 1.45-1.04 2.06-2.31 1.36" />
  <path d="M4.31 21.71c-1.27.7-2.31.09-2.31-1.36" />
  <path d="M4.31 21.71C3.04 22.42 2 21.8 2 20.35V8.99a3.12 3.12 0 0 1 3.11-3.11h7.78A3.12 3.12 0 0 1 16 8.99a3.12 3.12 0 0 0-3.11-3.11 3.105 3.105 0 0 1 3.1 3.11v11.36c0 1.45-1.04 2.07-2.31 1.36l-3.93-2.19c-.41-.23-1.09-.23-1.51 0z" />
  <path d="M5.11 5.88A3.12 3.12 0 0 0 2 8.99" />
  <path d="M8 5.88v-.77A3.12 3.12 0 0 1 11.11 2h7.78A3.12 3.12 0 0 1 22 5.11v11.36c0 1.45-1.04 2.06-2.31 1.36L16 15.77" />
  <path d="M9.76 19.52a1.62 1.62 0 0 0-1.52 0" />
</svg>
